src/icons/file-image.svg

<svg width="16" height="16" viewBox="0 0 16 16" fill="none" xmlns="http://www.w3.org/2000/svg">
<path fill-rule="evenodd" clip-rule="evenodd" d="M1 6.5C1 5.09987 1 4.3998 1.27248 3.86502C1.51217 3.39462 1.89462 3.01217 2.36502 2.77248C2.8998 2.5 3.59987 2.5 5 2.5H11C12.4001 2.5 13.1002 2.5 13.635 2.77248C14.1054 3.01217 14.4878 3.39462 14.7275 3.86502C15 4.3998 15 5.09987 15 6.5V10C15 11.4001 15 12.1002 14.7275 12.635C14.4878 13.1054 14.1054 13.4878 13.635 13.7275C13.1002 14 12.4001 14 11 14H5C3.59987 14 2.8998 14 2.36502 13.7275C1.89462 13.4878 1.51217 13.1054 1.27248 12.635C1 12.1002 1 11.4001 1 10V6.5ZM5 6.5L2.5 9V10.9C2.5 11.4601 2.5 11.7401 2.60899 11.954C2.70487 12.1422 2.85785 12.2951 3.04601 12.391C3.25992 12.5 3.53995 12.5 4.1 12.5H12C12.4659 12.5 12.6989 12.5 12.8827 12.4239C13.1277 12.3224 13.3224 12.1277 13.4239 11.8827C13.5 11.6989 13.5 11.4659 13.5 11L11 8.5L9 10.5L5 6.5ZM11.5 7C12.3284 7 13 6.32843 13 5.5C13 4.67157 12.3284 4 11.5 4C10.6716 4 10 4.67157 10 5.5C10 6.32843 10.6716 7 11.5 7Z" fill="#5BAFD4"/>
</svg>

<svg xmlns="http://www.w3.org/2000/svg" width="16" height="16" fill="none"><path fill="#5BAFD4" fill-rule="evenodd" d="M1 6.5c0-1.4 0-2.1.272-2.635a2.5 2.5 0 0 1 1.093-1.093C2.9 2.5 3.6 2.5 5 2.5h6c1.4 0 2.1 0 2.635.272a2.5 2.5 0 0 1 1.092 1.093C15 4.4 15 5.1 15 6.5V10c0 1.4 0 2.1-.273 2.635a2.5 2.5 0 0 1-1.092 1.092C13.1 14 12.4 14 11 14H5c-1.4 0-2.1 0-2.635-.273a2.5 2.5 0 0 1-1.093-1.092C1 12.1 1 11.4 1 10zm4 0L2.5 9v1.9c0 .56 0 .84.109 1.054a1 1 0 0 0 .437.437c.214.109.494.109 1.054.109H12c.466 0 .699 0 .883-.076a1 1 0 0 0 .54-.541c.077-.184.077-.417.077-.883L11 8.5l-2 2zm6.5.5a1.5 1.5 0 1 0 0-3 1.5 1.5 0 0 0 0 3" clip-rule="evenodd"/></svg>
